16x16/apps/elisa.svg

<svg height="16" width="16" xmlns="http://www.w3.org/2000/svg"><path d="m2.17 2c-.648 0-1.17.558-1.17 1.25v9.5c0 .692.522 1.25 1.17 1.25h12.66c.648 0 1.17-.558 1.17-1.25v-9.5c0-.692-.522-1.25-1.17-1.25zm3.33 5a1.5 1.5 0 0 1 1.5 1.5 1.5 1.5 0 0 1 -1.5 1.5 1.5 1.5 0 0 1 -1.5-1.5 1.5 1.5 0 0 1 1.5-1.5zm6 0a1.5 1.5 0 0 1 1.5 1.5 1.5 1.5 0 0 1 -1.5 1.5 1.5 1.5 0 0 1 -1.5-1.5 1.5 1.5 0 0 1 1.5-1.5z" fill="#17191e"/><path d="m2.429 14 1.428-2h9.286l1.428 2z" fill="#4f4f4f"/><circle cx="5.5" cy="12.5" opacity=".4" r=".5"/><path d="m3.553 4.3c-.306 0-.553.3-.553.7v5.389c0 .338.247.611.553.611h9.894c.306 0 .553-.273.553-.611v-3.389h-.002v-2c0-.4-.246-.7-.55-.7h-9.896zm1.997 2.9a1.25 1.25 0 0 1 1.25 1.25 1.25 1.25 0 0 1 -1.25 1.25 1.25 1.25 0 0 1 -1.25-1.25 1.25 1.25 0 0 1 1.25-1.25zm5.898 0a1.25 1.25 0 0 1 1.25 1.25 1.25 1.25 0 0 1 -1.25 1.25 1.25 1.25 0 0 1 -1.25-1.25 1.25 1.25 0 0 1 1.25-1.25z" fill="#1eb5c5"/><path d="m5.5 7a1.5 1.5 0 0 0 -1.5 1.5 1.5 1.5 0 0 0 1.5 1.5h6a1.5 1.5 0 0 0 1.5-1.5 1.5 1.5 0 0 0 -1.5-1.5zm0 .5a1 1 0 0 1 1 1 1 1 0 0 1 -1 1 1 1 0 0 1 -1-1 1 1 0 0 1 1-1zm6 0a1 1 0 0 1 1 1 1 1 0 0 1 -1 1 1 1 0 0 1 -1-1 1 1 0 0 1 1-1z" fill="#17191e"/><path d="m22.52 1113.5h3.81v1.524h-3.81z" fill="#ccc" transform="matrix(.7875 0 0 .65622 -10.737 -722.66)"/><path d="m22.524 1113.5v1.5h1.137c.087-.2.132-.5.133-.8-.001-.2-.046-.5-.133-.7z" fill="#874f29" transform="matrix(.7875 0 0 .65622 -10.737 -722.66)"/><circle cx="11.5" cy="12.5" opacity=".4" r=".5"/></svg>

<svg height="16" width="16" xmlns="http://www.w3.org/2000/svg">
    <path d="M2.17 2C1.522 2 1 2.558 1 3.25v9.5c0 .692.522 1.25 1.17 1.25h12.66c.648 0 1.17-.558 1.17-1.25v-9.5C16 2.558 15.478 2 14.83 2zM5.5 7A1.5 1.5 0 0 1 7 8.5 1.5 1.5 0 0 1 5.5 10 1.5 1.5 0 0 1 4 8.5 1.5 1.5 0 0 1 5.5 7zm6 0A1.5 1.5 0 0 1 13 8.5a1.5 1.5 0 0 1-1.5 1.5A1.5 1.5 0 0 1 10 8.5 1.5 1.5 0 0 1 11.5 7z" fill="#17191e"/>
    <path d="m2.429 14 1.428-2h9.286l1.428 2z" fill="#4f4f4f"/>
    <circle cx="5.5" cy="12.5" opacity=".4" r=".5"/>
    <path d="M3.553 4.3C3.247 4.3 3 4.6 3 5v5.389c0 .338.247.611.553.611h9.894c.306 0 .553-.273.553-.611V7h-.002V5c0-.4-.246-.7-.55-.7H3.552zM5.55 7.2A1.25 1.25 0 0 1 6.8 8.45 1.25 1.25 0 0 1 5.55 9.7 1.25 1.25 0 0 1 4.3 8.45 1.25 1.25 0 0 1 5.55 7.2zm5.898 0a1.25 1.25 0 0 1 1.25 1.25 1.25 1.25 0 0 1-1.25 1.25 1.25 1.25 0 0 1-1.25-1.25 1.25 1.25 0 0 1 1.25-1.25z" fill="#1eb5c5"/>
    <path d="M5.5 7A1.5 1.5 0 0 0 4 8.5 1.5 1.5 0 0 0 5.5 10h6A1.5 1.5 0 0 0 13 8.5 1.5 1.5 0 0 0 11.5 7zm0 .5a1 1 0 0 1 1 1 1 1 0 0 1-1 1 1 1 0 0 1-1-1 1 1 0 0 1 1-1zm6 0a1 1 0 0 1 1 1 1 1 0 0 1-1 1 1 1 0 0 1-1-1 1 1 0 0 1 1-1z" fill="#17191e"/>
    <path d="M6.998 8.041h3v1h-3z" fill="#ccc"/>
    <path d="M7 8.041v.984h.896a1.214 1.214 0 0 0 0-.984z" fill="#874f29"/>
    <circle cx="11.5" cy="12.5" opacity=".4" r=".5"/>
</svg>
